Catalina-light/actions/22/system-shutdown.svg

<svg xmlns="http://www.w3.org/2000/svg" viewBox="0 0 22 22">
  <defs id="defs3051">
    <style type="text/css" id="current-color-scheme">
      .ColorScheme-Text {
        color:#4d4d4d
      }
      </style>
  </defs>
 <path 
     style="fill:currentColor;fill-opacity:1;stroke:none"      
	 class="ColorScheme-Text"
        d="M 19,11 A 7.9999977,7.9999977 0 0 1 11.000006,19 7.9999977,7.9999977 0 0 1 3,11 7.9999977,7.9999977 0 0 1 11.000006,3 7.9999977,7.9999977 0 0 1 19,11 Z M 15.32788,9.243749 C 14.990006,8.568166 14.51484,8.001594 13.902143,7.5442 13.725914,7.409914 13.526571,7.357451 13.304131,7.386811 13.081686,7.416181 12.905446,7.521097 12.775337,7.701509 12.641051,7.877731 12.58968,8.076 12.62112,8.296349 c 0.03131,0.22044 0.135366,0.397668 0.3116,0.531948 0.41112,0.310532 0.729206,0.690354 0.953577,1.139406 0.224526,0.448977 0.33672,0.927463 0.33672,1.43516 0,0.436526 -0.08499,0.852977 -0.254897,1.249577 -0.169977,0.396583 -0.39976,0.739634 -0.689337,1.029217 -0.289583,0.289497 -0.632554,0.519274 -1.029143,0.689263 -0.396594,0.169977 -0.813114,0.25504 -1.249571,0.25504 -0.436383,0 -0.852903,-0.08506 -1.2494976,-0.25504 C 9.3539829,14.200937 9.0109371,13.97116 8.7213486,13.681657 8.4318457,13.392074 8.2020686,13.049017 8.0320914,12.65244 7.8621086,12.255851 7.77712,11.839394 7.77712,11.402863 c 0,-0.507697 0.1122629,-0.986109 0.3367943,-1.43516 C 8.33844,9.518731 8.6562971,9.138909 9.0675714,8.828297 9.2438057,8.693943 9.3476457,8.51672 9.3791714,8.296349 9.4106,8.076074 9.3592286,7.877731 9.2249543,7.701509 9.0948457,7.521091 8.9196914,7.416171 8.6993314,7.386811 8.4789771,7.35744 8.27856,7.409897 8.0981486,7.5442 7.4853771,8.001594 7.0102114,8.56816 6.6723429,9.243749 6.3344686,9.919417 6.1655714,10.639126 6.1655714,11.402863 c 0,0.65472 0.1280286,1.279931 0.3839943,1.875868 0.2560514,0.595938 0.6001086,1.109955 1.0323886,1.542252 0.4322114,0.432206 0.94632,0.776406 1.5422457,1.032234 0.5959371,0.256046 1.221223,0.384149 1.875869,0.384149 0.654645,0 1.279937,-0.128103 1.875868,-0.384149 0.595926,-0.255897 1.110034,-0.600028 1.54224,-1.032234 0.432206,-0.432212 0.776263,-0.94632 1.032309,-1.542252 0.255977,-0.595931 0.383925,-1.221217 0.383925,-1.875868 0,-0.763737 -0.168668,-1.483446 -0.506537,-2.159114 l 0,0 z m -4.327926,2.159194 c 0.218189,0 0.407177,-0.07966 0.566492,-0.239206 0.159463,-0.159394 0.23936,-0.348303 0.23936,-0.566486 l 0,-4.0288 c 0,-0.218274 -0.07981,-0.407102 -0.23936,-0.566491 -0.15932,-0.159549 -0.348223,-0.23928 -0.566492,-0.23928 -0.218263,0 -0.407097,0.07981 -0.566565,0.23928 -0.159469,0.159394 -0.2392,0.348297 -0.2392,0.566491 l 0,4.0288 c 0,0.218178 0.07973,0.407098 0.2392,0.566486 0.159468,0.159554 0.348377,0.239206 0.566565,0.239206 l 0,0 z"
     />
</svg>

<svg viewBox="0 0 22 22" xmlns="http://www.w3.org/2000/svg">
<defs>
<style id="current-color-scheme" type="text/css">.ColorScheme-Text {
        color:#363636
      }</style>
</defs>
<path class="ColorScheme-Text" d="m19 11a8 8 0 0 1-8 8 8 8 0 0 1-8-8 8 8 0 0 1 8-8 8 8 0 0 1 8 8zm-3.6721-1.7563c-0.33787-0.67558-0.81304-1.2422-1.4257-1.6995-0.17623-0.13429-0.37557-0.18675-0.59801-0.15739-0.22244 0.02937-0.39868 0.13429-0.52879 0.3147-0.13429 0.17622-0.18566 0.37449-0.15422 0.59484 0.03131 0.22044 0.13537 0.39767 0.3116 0.53195 0.41112 0.31053 0.72921 0.69035 0.95358 1.1394 0.22453 0.44898 0.33672 0.92746 0.33672 1.4352 0 0.43653-0.08499 0.85298-0.2549 1.2496-0.16998 0.39658-0.39976 0.73963-0.68934 1.0292-0.28958 0.2895-0.63255 0.51927-1.0291 0.68926-0.39659 0.16998-0.81311 0.25504-1.2496 0.25504-0.43638 0-0.8529-0.08506-1.2495-0.25504-0.39659-0.16998-0.73963-0.39976-1.0292-0.68926-0.2895-0.28958-0.51928-0.63264-0.68926-1.0292-0.16998-0.39659-0.25497-0.81305-0.25497-1.2496 0-0.5077 0.11226-0.98611 0.33679-1.4352 0.22453-0.44897 0.54238-0.82879 0.95366-1.1394 0.17623-0.13435 0.28007-0.31158 0.3116-0.53195 0.031429-0.22028-0.019943-0.41862-0.15422-0.59484-0.13011-0.18042-0.30526-0.28534-0.52562-0.3147-0.22035-0.029371-0.42077 0.023086-0.60118 0.15739-0.61277 0.45739-1.0879 1.024-1.4258 1.6995-0.33787 0.67567-0.50677 1.3954-0.50677 2.1591 0 0.65472 0.12803 1.2799 0.38399 1.8759 0.25605 0.59594 0.60011 1.11 1.0324 1.5423 0.43221 0.43221 0.94632 0.77641 1.5422 1.0322 0.59594 0.25605 1.2212 0.38415 1.8759 0.38415 0.65464 0 1.2799-0.1281 1.8759-0.38415 0.59593-0.2559 1.11-0.60003 1.5422-1.0322 0.43221-0.43221 0.77626-0.94632 1.0323-1.5423 0.25598-0.59593 0.38392-1.2212 0.38392-1.8759 0-0.76374-0.16867-1.4834-0.50654-2.1591zm-4.3279 2.1592c0.21819 0 0.40718-0.07966 0.56649-0.23921 0.15946-0.15939 0.23936-0.3483 0.23936-0.56649v-4.0288c0-0.21827-0.07981-0.4071-0.23936-0.56649-0.15932-0.15955-0.34822-0.23928-0.56649-0.23928-0.21826 0-0.4071 0.07981-0.56656 0.23928-0.15947 0.15939-0.2392 0.3483-0.2392 0.56649v4.0288c0 0.21818 0.07973 0.4071 0.2392 0.56649 0.15947 0.15955 0.34838 0.23921 0.56656 0.23921z" fill="#363636"/>
</svg>
